icon-themes/sifr_svg/cmd/sc_alignverticalcenter.svg

<svg viewBox="0 0 16 16" xmlns="http://www.w3.org/2000/svg"><path d="m7 0v2.6835938l-.28125-.3710938c-.190288-.18267-.461858-.3125-.71875-.3125h-1v.4121094.5878906c0 .30945.0903.55232.28125.75l2.71875 3.25c1-1.41667 1.645741-1.83333 2.71875-3.25.19095-.19768.28125-.44055.28125-.75v-.5878906-.4121094h-1c-.2240216 0-.528449.12983-.71875.3125l-.28125.3710938v-2.6835938zm1 7h-6v2h6 6v-2zm0 2-2.71875 3.25c-.19095.19768-.28125.44055-.28125.75v.587891.412109h1c.256892 0 .528462-.12983.71875-.3125l.28125-.371094v2.683594h2v-2.683594l.28125.371094c.190301.18267.46186.3125.71875.3125h1v-.412109-.587891c0-.30945-.0903-.55232-.28125-.75-1.073009-1.41667-1.71875-1.83333-2.71875-3.25z" fill="#555753"/></svg>

<svg xmlns="http://www.w3.org/2000/svg" viewBox="0 0 16 16">
  <path
     style="fill:#555753"
     d="M 7 0 L 7 2.6835938 L 6.71875 2.3125 C 6.528462 2.12983 6.256892 2 6 2 L 5 2 L 5 2.4121094 L 5 3 C 5 3.30945 5.0903 3.55232 5.28125 3.75 L 8 7 C 9 5.58333 9.645741 5.16667 10.71875 3.75 C 10.9097 3.55232 11 3.30945 11 3 L 11 2.4121094 L 11 2 L 10 2 C 9.7759784 2 9.471551 2.12983 9.28125 2.3125 L 9 2.6835938 L 9 0 L 7 0 z M 8 7 L 2 7 L 2 9 L 8 9 L 14 9 L 14 7 L 8 7 z M 8 9 L 5.28125 12.25 C 5.0903 12.44768 5 12.69055 5 13 L 5 13.587891 L 5 14 L 6 14 C 6.256892 14 6.528462 13.87017 6.71875 13.6875 L 7 13.316406 L 7 16 L 9 16 L 9 13.316406 L 9.28125 13.6875 C 9.471551 13.87017 9.74311 14 10 14 L 11 14 L 11 13.587891 L 11 13 C 11 12.69055 10.9097 12.44768 10.71875 12.25 C 9.645741 10.83333 9 10.41667 8 9 z "
     />
</svg>
